packages/gui/src/assets/img/audio-small.svg

<?xml version="1.0" encoding="UTF-8" standalone="no"?>
<svg
   width="52"
   height="57"
   viewBox="0 0 52 57"
   fill="none"
   version="1.1"
   id="svg1"
   xmlns="http://www.w3.org/2000/svg"
   xmlns:svg="http://www.w3.org/2000/svg">
  <defs
     id="defs1" />
  <path
     fill-rule="evenodd"
     clip-rule="evenodd"
     d="m 51.6305,3.10897 c 0,-0.6557 -0.3019,-1.27487 -0.8186,-1.67863 C 50.2953,1.02658 49.6215,0.883221 48.9852,1.04168 L 14.7678,9.56342 C 13.8185,9.79984 13.1522,10.6524 13.1522,11.6307 V 24.4133 40.9881 C 11.8988,40.263 10.4435,39.848 8.89137,39.848 c -4.70643,0 -8.521741,3.8154 -8.521741,8.5218 0,4.7064 3.815311,8.5217 8.521741,8.5217 4.70643,0 8.52173,-3.8153 8.52173,-8.5217 0,0 0,0 0,0 V 26.0782 l 29.9565,-7.4605 v 15.9792 c -1.2534,-0.7251 -2.7087,-1.1401 -4.2609,-1.1401 -4.7065,0 -8.5218,3.8153 -8.5218,8.5217 0,4.7065 3.8153,8.5218 8.5218,8.5218 4.7064,0 8.5217,-3.8153 8.5217,-8.5218 h 10e-5 V 15.8916 Z M 13.1522,48.3698 c 0,-2.3532 -1.9076,-4.2609 -4.26083,-4.2609 -2.35322,0 -4.26087,1.9077 -4.26087,4.2609 0,2.3532 1.90765,4.2608 4.26087,4.2608 2.35323,0 4.26083,-1.9076 4.26083,-4.2608 z M 47.3696,14.2266 17.4131,21.6872 V 13.2956 L 47.3696,5.83506 Z m -4.2609,23.4911 c -2.3533,0 -4.2609,1.9076 -4.2609,4.2608 0,2.3533 1.9076,4.2609 4.2609,4.2609 2.3532,0 4.2608,-1.9076 4.2608,-4.2609 0,-2.3532 -1.9076,-4.2608 -4.2608,-4.2608 z"
     fill="#3AAC59"
     id="path1"
     style="fill:#853aac;fill-opacity:1" />
</svg>

<svg width="100%" height="100%" viewBox="0 0 52 57" fill="none" xmlns="http://www.w3.org/2000/svg">
<path fill-rule="evenodd" clip-rule="evenodd" d="M51.6305 3.10897C51.6305 2.45327 51.3286 1.8341 50.8119 1.43034C50.2953 1.02658 49.6215 0.883221 48.9852 1.04168L14.7678 9.56342C13.8185 9.79984 13.1522 10.6524 13.1522 11.6307V24.4133V40.9881C11.8988 40.263 10.4435 39.848 8.89137 39.848C4.18494 39.848 0.369629 43.6634 0.369629 48.3698C0.369629 53.0762 4.18494 56.8915 8.89137 56.8915C13.5978 56.8915 17.4131 53.0762 17.4131 48.3698C17.4131 48.3698 17.4131 48.3698 17.4131 48.3698V26.0782L47.3696 18.6177V34.5969C46.1162 33.8718 44.6609 33.4568 43.1087 33.4568C38.4022 33.4568 34.5869 37.2721 34.5869 41.9785C34.5869 46.685 38.4022 50.5003 43.1087 50.5003C47.8151 50.5003 51.6304 46.685 51.6304 41.9785L51.6305 41.9785V15.8916V3.10897ZM13.1522 48.3698C13.1522 46.0166 11.2446 44.1089 8.89137 44.1089C6.53815 44.1089 4.6305 46.0166 4.6305 48.3698C4.6305 50.723 6.53815 52.6306 8.89137 52.6306C11.2446 52.6306 13.1522 50.723 13.1522 48.3698C13.1522 48.3698 13.1522 48.3698 13.1522 48.3698ZM47.3696 14.2266L17.4131 21.6872V13.2956L47.3696 5.83506V14.2266ZM43.1087 37.7177C40.7554 37.7177 38.8478 39.6253 38.8478 41.9785C38.8478 44.3318 40.7554 46.2394 43.1087 46.2394C45.4619 46.2394 47.3695 44.3318 47.3695 41.9785C47.3695 39.6253 45.4619 37.7177 43.1087 37.7177Z" fill="#3AAC59"/>
</svg>
